svgs/moshidon_nightly.svg

<svg width="192" height="192" viewBox="0 0 192 192" fill="none" xmlns="http://www.w3.org/2000/svg">
<path d="M65 87C65 84.2422 64.4568 81.5115 63.4015 78.9636C62.3461 76.4158 60.7993 74.1008 58.8492 72.1508C56.8992 70.2007 54.5842 68.6539 52.0364 67.5985C49.4885 66.5432 46.7578 66 44 66C41.2422 66 38.5115 66.5432 35.9636 67.5985C33.4158 68.6539 31.1008 70.2007 29.1508 72.1508C27.2007 74.1008 25.6539 76.4158 24.5985 78.9636C23.5432 81.5115 23 84.2422 23 87V126M65 87C65 81.4305 67.2125 76.089 71.1508 72.1508C75.089 68.2125 80.4305 66 86 66C91.5695 66 96.911 68.2125 100.849 72.1508C104.788 76.089 107 81.4305 107 87V126M65 87V109" stroke="black" stroke-width="14" stroke-linecap="round" stroke-linejoin="round"/>
<path d="M162.591 121.609C171.662 113.716 172.523 100.045 164.514 91.0737C163.478 89.9132 162.344 88.8881 161.136 88C166.121 96.717 164.446 107.969 156.548 114.84C148.651 121.712 137.133 121.937 129 115.96C129.741 117.255 130.628 118.494 131.664 119.654C139.673 128.626 153.519 129.501 162.591 121.609Z" stroke="black" stroke-width="12" stroke-linejoin="round"/>
</svg>

<svg xmlns="http://www.w3.org/2000/svg" width="192" height="192" fill="none" viewBox="0 0 192 192"><path stroke="#000" stroke-linecap="round" stroke-linejoin="round" stroke-width="14" d="M65 87a21.001 21.001 0 0 0-42 0v39m42-39a21 21 0 1 1 42 0v39M65 87v22"/><path stroke="#000" stroke-linejoin="round" stroke-width="12" d="M162.591 121.609a21.44 21.44 0 0 0 1.923-30.535A22 22 0 0 0 161.136 88a21.435 21.435 0 0 1-4.588 26.84c-7.897 6.872-19.415 7.097-27.548 1.12a21.8 21.8 0 0 0 2.664 3.694c8.009 8.972 21.855 9.847 30.927 1.955Z"/></svg>
